Sweet-Rainbow/icons/rider.svg

<?xml version="1.0" encoding="UTF-8" standalone="no"?>
<!-- Generator: Gravit.io -->

<svg
   xmlns:dc="http://purl.org/dc/elements/1.1/"
   xmlns:cc="http://creativecommons.org/ns#"
   xmlns:rdf="http://www.w3.org/1999/02/22-rdf-syntax-ns#"
   xmlns:svg="http://www.w3.org/2000/svg"
   xmlns="http://www.w3.org/2000/svg"
   xmlns:sodipodi="http://sodipodi.sourceforge.net/DTD/sodipodi-0.dtd"
   xmlns:inkscape="http://www.inkscape.org/namespaces/inkscape"
   style="isolation:isolate"
   viewBox="0 0 36 36"
   width="48"
   height="48"
   version="1.1"
   id="svg43"
   sodipodi:docname="rider.svg"
   inkscape:version="0.92.4 (5da689c313, 2019-01-14)">
  <metadata
     id="metadata49">
    <rdf:RDF>
      <cc:Work
         rdf:about="">
        <dc:format>image/svg+xml</dc:format>
        <dc:type
           rdf:resource="http://purl.org/dc/dcmitype/StillImage" />
        <dc:title></dc:title>
      </cc:Work>
    </rdf:RDF>
  </metadata>
  <defs
     id="defs47" />
  <sodipodi:namedview
     pagecolor="#ffffff"
     bordercolor="#666666"
     borderopacity="1"
     objecttolerance="10"
     gridtolerance="10"
     guidetolerance="10"
     inkscape:pageopacity="0"
     inkscape:pageshadow="2"
     inkscape:window-width="640"
     inkscape:window-height="480"
     id="namedview45"
     showgrid="false"
     inkscape:zoom="29.365243"
     inkscape:cx="25.325443"
     inkscape:cy="32"
     inkscape:current-layer="svg43"
     units="px" />
  <linearGradient
     id="_lgradient_22"
     x1="-0.014458464"
     y1="0.009839246"
     x2="1.0164566"
     y2="1.072293"
     gradientTransform="matrix(10.97,0,0,18.678,37.03,11.28)"
     gradientUnits="userSpaceOnUse">
    <stop
       offset="0%"
       stop-opacity="1"
       style="stop-color:rgb(249,212,35)"
       id="stop2" />
    <stop
       offset="51.56237565086822%"
       stop-opacity="1"
       style="stop-color:rgb(255,78,80)"
       id="stop4" />
    <stop
       offset="99.1304347826087%"
       stop-opacity="1"
       style="stop-color:rgb(138,35,135)"
       id="stop6" />
  </linearGradient>
  <linearGradient
     id="_lgradient_23"
     x1="0.0625"
     y1="0.995"
     x2="0.73036504"
     y2="-0.38907081"
     gradientTransform="matrix(23.3,0,0,33.268,24.27,15.062)"
     gradientUnits="userSpaceOnUse">
    <stop
       offset="0%"
       stop-opacity="1"
       style="stop-color:rgb(22,181,228)"
       id="stop11" />
    <stop
       offset="93.21752630371869%"
       stop-opacity="1"
       style="stop-color:rgb(234,40,249)"
       id="stop13" />
    <stop
       offset="98.26086956521739%"
       stop-opacity="1"
       style="stop-color:rgb(245,32,250)"
       id="stop15" />
  </linearGradient>
  <linearGradient
     id="_lgradient_24"
     x1="0.74553573"
     y1="1.0444444"
     x2="0.70089287"
     y2="0.097222224"
     gradientTransform="matrix(32,0,0,47.73,0.82,-0.36)"
     gradientUnits="userSpaceOnUse">
    <stop
       offset="0%"
       stop-opacity="1"
       style="stop-color:rgb(255,224,49)"
       id="stop20" />
    <stop
       offset="100%"
       stop-opacity="1"
       style="stop-color:rgb(250,0,117)"
       id="stop22" />
  </linearGradient>
  <linearGradient
     id="_lgradient_25"
     x1="-3.8208334e-05"
     y1="0.50000006"
     x2="0.99996185"
     y2="0.50000006"
     gradientTransform="matrix(17.59,0,0,11.6,19.17,-0.19)"
     gradientUnits="userSpaceOnUse">
    <stop
       offset="0%"
       stop-opacity="1"
       style="stop-color:rgb(0,198,255)"
       id="stop27" />
    <stop
       offset="98.69565217391305%"
       stop-opacity="1"
       style="stop-color:rgb(0,114,255)"
       id="stop29" />
  </linearGradient>
  <linearGradient
     id="_lgradient_26"
     x1="0.34027779"
     y1="0.036585364"
     x2="1.0087188"
     y2="1.0127324"
     gradientTransform="matrix(29,0,0,29,9.5,9.5)"
     gradientUnits="userSpaceOnUse">
    <stop
       offset="0%"
       stop-opacity="1"
       style="stop-color:rgb(156,51,196)"
       id="stop34" />
    <stop
       offset="51.30434782608696%"
       stop-opacity="1"
       style="stop-color:rgb(255,25,80)"
       id="stop36" />
    <stop
       offset="98.69565217391305%"
       stop-opacity="1"
       style="stop-color:rgb(255,135,36)"
       id="stop38" />
  </linearGradient>
  <g
     id="g861"
     transform="matrix(0.73937153,0,0,0.73937153,-0.04805905,0.26617385)">
    <path
       id="path9"
       d="m 37.03,15.75 0.16,-0.97 0.03,-3.5 1.75,0.97 9.03,6.167 -3.34,7.693 -1.53,3.848 -2.9,-4.408 1.11,-1.66 1.79,-4.19 z"
       style="fill:url(#_lgradient_22)"
       inkscape:connector-curvature="0" />
    <path
       id="path18"
       d="m 37.19,22.85 v -2.304 l 0.81,-5.484 2.81,6.088 6.76,18.62 -13.53,8.56 -8.03,-3.59 -1.74,-1 1.99,-3.47 1.73,0.99 5.97,2.41 8.47,-5.44 z"
       style="fill:url(#_lgradient_23)"
       inkscape:connector-curvature="0" />
    <path
       id="path25"
       d="m 28,37 h 1 l 3.82,1.15 -1.48,1.34 -10.98,7.88 -15.16,-5 -4.38,-32.29 14.08,-10.44 8.09,4.62 1.74,1 -1.99,3.47 -1.73,-0.99 -5.91,-3.38 -9.92,7.56 3.62,27.71 10.84,3 z"
       style="fill:url(#_lgradient_24)"
       inkscape:connector-curvature="0" />
    <path
       id="path32"
       d="M 23.41,11.41 21.455,11.06 19.17,10 l 1.42,-1.41 8.77,-8.78 6.34,9.13 1.06,1.7 -3.4,0.42 H 32.3 L 28.64,6.19 Z"
       style="fill:url(#_lgradient_25)"
       inkscape:connector-curvature="0" />
    <path
       id="path41"
       d="m 35.978,31.218 v 0 c 0,-0.695 0.565,-1.26 1.261,-1.26 v 0 c 0.696,0 1.261,0.565 1.261,1.26 v 0 4.13 c 0,1.74 -1.412,3.152 -3.152,3.152 H 12.652 C 10.912,38.5 9.5,37.088 9.5,35.348 v -11.978 0 c 0,-0.696 0.565,-1.261 1.261,-1.261 v 0 c 0.696,0 1.261,0.565 1.261,1.261 v 0 10.717 c 0,1.044 0.847,1.891 1.891,1.891 h 20.174 c 1.044,0 1.891,-0.847 1.891,-1.891 z M 12.022,16.782 v 0 c 0,0.695 -0.565,1.26 -1.261,1.26 v 0 c -0.696,0 -1.261,-0.565 -1.261,-1.26 v 0 -4.13 C 9.5,10.912 10.912,9.5 12.652,9.5 h 22.696 c 1.74,0 3.152,1.412 3.152,3.152 v 12.495 0 c 0,0.696 -0.565,1.261 -1.261,1.261 v 0 c -0.696,0 -1.261,-0.565 -1.261,-1.261 v 0 -11.234 c 0,-1.044 -0.847,-1.891 -1.891,-1.891 H 13.913 c -1.044,0 -1.891,0.847 -1.891,1.891 z M 14,30.5 h 9 V 33 h -9 z m 2.334,-13.527 v 2.972 h 0.752 v 0 q 1.106,0 1.633,-0.369 v 0 0 q 0.526,-0.369 0.526,-1.159 v 0 0 q 0,-0.782 -0.538,-1.113 v 0 0 q -0.538,-0.331 -1.666,-0.331 v 0 z m 14.543,3.544 v 0 0 q 0,-3.544 -3.13,-3.544 v 0 h -1.241 v 7.163 h 1.001 v 0 q 3.37,0 3.37,-3.619 z m -13.302,1.324 h -1.241 v 4.221 h -2.333 v -11 h 3.205 v 0 q 2.242,0 3.318,0.816 v 0 0 q 1.076,0.816 1.076,2.479 v 0 0 q 0,0.971 -0.534,1.727 v 0 0 q -0.534,0.756 -1.512,1.185 v 0 0 q 2.483,3.709 3.235,4.793 v 0 H 20.201 Z M 33.3,20.456 v 0 0 q 0,2.717 -1.546,4.161 v 0 0 q -1.546,1.445 -4.466,1.445 v 0 h -3.115 v -11 h 3.454 v 0 q 2.694,0 4.183,1.422 v 0 0 q 1.49,1.422 1.49,3.972 z"
       style="fill:url(#_lgradient_26);fill-rule:evenodd"
       inkscape:connector-curvature="0" />
  </g>
</svg>

<?xml version="1.0" encoding="UTF-8" standalone="no"?><!-- Generator: Gravit.io --><svg xmlns="http://www.w3.org/2000/svg" xmlns:xlink="http://www.w3.org/1999/xlink" style="isolation:isolate" viewBox="0 0 48 48" width="48pt" height="48pt"><linearGradient id="_lgradient_22" x1="-0.014458464773922156" y1="0.009839246119734024" x2="1.0164565923220248" y2="1.0722930524759795" gradientTransform="matrix(10.97,0,0,18.678,37.03,11.28)" gradientUnits="userSpaceOnUse"><stop offset="0%" stop-opacity="1" style="stop-color:rgb(249,212,35)"/><stop offset="51.56237565086822%" stop-opacity="1" style="stop-color:rgb(255,78,80)"/><stop offset="99.1304347826087%" stop-opacity="1" style="stop-color:rgb(138,35,135)"/></linearGradient><path d=" M 37.03 15.75 L 37.19 14.78 L 37.22 11.28 L 38.97 12.25 L 48 18.417 L 44.66 26.11 L 43.13 29.958 L 40.23 25.55 L 41.34 23.89 L 43.13 19.7 L 37.03 15.75 Z " fill="url(#_lgradient_22)"/><linearGradient id="_lgradient_23" x1="0.0625" y1="0.9950000000000001" x2="0.730365044247788" y2="-0.3890707964601767" gradientTransform="matrix(23.3,0,0,33.268,24.27,15.062)" gradientUnits="userSpaceOnUse"><stop offset="0%" stop-opacity="1" style="stop-color:rgb(22,181,228)"/><stop offset="93.21752630371869%" stop-opacity="1" style="stop-color:rgb(234,40,249)"/><stop offset="98.26086956521739%" stop-opacity="1" style="stop-color:rgb(245,32,250)"/></linearGradient><path d=" M 37.19 22.85 L 37.19 20.546 L 38 15.062 L 40.81 21.15 L 47.57 39.77 L 34.04 48.33 L 26.01 44.74 L 24.27 43.74 L 26.26 40.27 L 27.99 41.26 L 33.96 43.67 L 42.43 38.23 L 37.19 22.85 Z " fill="url(#_lgradient_23)"/><linearGradient id="_lgradient_24" x1="0.7455357142857143" y1="1.0444444444444445" x2="0.7008928571428568" y2="0.09722222222222177" gradientTransform="matrix(32,0,0,47.73,0.82,-0.36)" gradientUnits="userSpaceOnUse"><stop offset="0%" stop-opacity="1" style="stop-color:rgb(255,224,49)"/><stop offset="100%" stop-opacity="1" style="stop-color:rgb(250,0,117)"/></linearGradient><path d=" M 28 37 L 29 37 L 32.82 38.15 L 31.34 39.49 L 20.36 47.37 L 5.2 42.37 L 0.82 10.08 L 14.9 -0.36 L 22.99 4.26 L 24.73 5.26 L 22.74 8.73 L 21.01 7.74 L 15.1 4.36 L 5.18 11.92 L 8.8 39.63 L 19.64 42.63 L 28 37 Z " fill="url(#_lgradient_24)"/><linearGradient id="_lgradient_25" x1="-0.000038208333333289435" y1="0.5000000833333331" x2="0.9999618333333335" y2="0.5000000833333331" gradientTransform="matrix(17.59,0,0,11.6,19.17,-0.19)" gradientUnits="userSpaceOnUse"><stop offset="0%" stop-opacity="1" style="stop-color:rgb(0,198,255)"/><stop offset="98.69565217391305%" stop-opacity="1" style="stop-color:rgb(0,114,255)"/></linearGradient><path d=" M 23.41 11.41 L 21.455 11.06 L 19.17 10 L 20.59 8.59 L 29.36 -0.19 L 35.7 8.94 L 36.76 10.64 L 33.36 11.06 L 32.3 11.06 L 28.64 6.19 L 23.41 11.41 Z " fill="url(#_lgradient_25)"/><linearGradient id="_lgradient_26" x1="0.34027777777777773" y1="0.036585365853658625" x2="1.0087187958883996" y2="1.012732351993124" gradientTransform="matrix(29,0,0,29,9.5,9.5)" gradientUnits="userSpaceOnUse"><stop offset="0%" stop-opacity="1" style="stop-color:rgb(156,51,196)"/><stop offset="51.30434782608696%" stop-opacity="1" style="stop-color:rgb(255,25,80)"/><stop offset="98.69565217391305%" stop-opacity="1" style="stop-color:rgb(255,135,36)"/></linearGradient><path d=" M 35.978 31.218 L 35.978 31.218 C 35.978 30.523 36.543 29.958 37.239 29.958 L 37.239 29.958 C 37.935 29.958 38.5 30.523 38.5 31.218 L 38.5 31.218 L 38.5 35.348 C 38.5 37.088 37.088 38.5 35.348 38.5 L 12.652 38.5 C 10.912 38.5 9.5 37.088 9.5 35.348 L 9.5 23.37 L 9.5 23.37 C 9.5 22.674 10.065 22.109 10.761 22.109 L 10.761 22.109 C 11.457 22.109 12.022 22.674 12.022 23.37 L 12.022 23.37 L 12.022 34.087 C 12.022 35.131 12.869 35.978 13.913 35.978 L 34.087 35.978 C 35.131 35.978 35.978 35.131 35.978 34.087 L 35.978 31.218 L 35.978 31.218 L 35.978 31.218 Z  M 12.022 16.782 L 12.022 16.782 C 12.022 17.477 11.457 18.042 10.761 18.042 L 10.761 18.042 C 10.065 18.042 9.5 17.477 9.5 16.782 L 9.5 16.782 L 9.5 12.652 C 9.5 10.912 10.912 9.5 12.652 9.5 L 35.348 9.5 C 37.088 9.5 38.5 10.912 38.5 12.652 L 38.5 25.147 L 38.5 25.147 C 38.5 25.843 37.935 26.408 37.239 26.408 L 37.239 26.408 C 36.543 26.408 35.978 25.843 35.978 25.147 L 35.978 25.147 L 35.978 13.913 C 35.978 12.869 35.131 12.022 34.087 12.022 L 13.913 12.022 C 12.869 12.022 12.022 12.869 12.022 13.913 L 12.022 16.782 L 12.022 16.782 L 12.022 16.782 Z  M 14 30.5 L 23 30.5 L 23 33 L 14 33 L 14 30.5 L 14 30.5 Z  M 16.334 16.973 L 16.334 19.945 L 17.086 19.945 L 17.086 19.945 Q 18.192 19.945 18.719 19.576 L 18.719 19.576 L 18.719 19.576 Q 19.245 19.207 19.245 18.417 L 19.245 18.417 L 19.245 18.417 Q 19.245 17.635 18.707 17.304 L 18.707 17.304 L 18.707 17.304 Q 18.169 16.973 17.041 16.973 L 17.041 16.973 L 16.334 16.973 L 16.334 16.973 Z  M 30.877 20.517 L 30.877 20.517 L 30.877 20.517 Q 30.877 16.973 27.747 16.973 L 27.747 16.973 L 26.506 16.973 L 26.506 24.136 L 27.507 24.136 L 27.507 24.136 Q 30.877 24.136 30.877 20.517 L 30.877 20.517 Z  M 17.575 21.841 L 16.334 21.841 L 16.334 26.062 L 14.001 26.062 L 14.001 15.062 L 17.206 15.062 L 17.206 15.062 Q 19.448 15.062 20.524 15.878 L 20.524 15.878 L 20.524 15.878 Q 21.6 16.694 21.6 18.357 L 21.6 18.357 L 21.6 18.357 Q 21.6 19.328 21.066 20.084 L 21.066 20.084 L 21.066 20.084 Q 20.532 20.84 19.554 21.269 L 19.554 21.269 L 19.554 21.269 Q 22.037 24.978 22.789 26.062 L 22.789 26.062 L 20.201 26.062 L 17.575 21.841 L 17.575 21.841 Z  M 33.3 20.456 L 33.3 20.456 L 33.3 20.456 Q 33.3 23.173 31.754 24.617 L 31.754 24.617 L 31.754 24.617 Q 30.208 26.062 27.288 26.062 L 27.288 26.062 L 24.173 26.062 L 24.173 15.062 L 27.627 15.062 L 27.627 15.062 Q 30.321 15.062 31.81 16.484 L 31.81 16.484 L 31.81 16.484 Q 33.3 17.906 33.3 20.456 L 33.3 20.456 Z " fill-rule="evenodd" fill="url(#_lgradient_26)"/></svg>
